app/public/icons/navGrupo.svg

<svg width="25" height="25" viewBox="0 0 25 25" fill="none" xmlns="http://www.w3.org/2000/svg">
<g clip-path="url(#clip0_351_1040)">
<path d="M5.625 0C6.4538 0 7.24866 0.41155 7.83471 1.14411C8.42076 1.87668 8.75 2.87025 8.75 3.90625C8.75 4.94225 8.42076 5.93582 7.83471 6.66839C7.24866 7.40095 6.4538 7.8125 5.625 7.8125C4.7962 7.8125 4.00134 7.40095 3.41529 6.66839C2.82924 5.93582 2.5 4.94225 2.5 3.90625C2.5 2.87025 2.82924 1.87668 3.41529 1.14411C4.00134 0.41155 4.7962 0 5.625 0ZM20 0C20.8288 0 21.6237 0.41155 22.2097 1.14411C22.7958 1.87668 23.125 2.87025 23.125 3.90625C23.125 4.94225 22.7958 5.93582 22.2097 6.66839C21.6237 7.40095 20.8288 7.8125 20 7.8125C19.1712 7.8125 18.3763 7.40095 17.7903 6.66839C17.2042 5.93582 16.875 4.94225 16.875 3.90625C16.875 2.87025 17.2042 1.87668 17.7903 1.14411C18.3763 0.41155 19.1712 0 20 0ZM0 14.585C0 11.709 1.86719 9.375 4.16797 9.375H5.83594C6.45703 9.375 7.04687 9.5459 7.57812 9.84863C7.52734 10.2002 7.50391 10.5664 7.50391 10.9375C7.50391 12.8027 8.16016 14.4775 9.19531 15.625C9.1875 15.625 9.17969 15.625 9.16797 15.625H0.832031C0.375 15.625 0 15.1563 0 14.585ZM15.832 15.625C15.8242 15.625 15.8164 15.625 15.8047 15.625C16.8438 14.4775 17.4961 12.8027 17.4961 10.9375C17.4961 10.5664 17.4688 10.2051 17.4219 9.84863C17.9531 9.54102 18.543 9.375 19.1641 9.375H20.832C23.1328 9.375 25 11.709 25 14.585C25 15.1611 24.625 15.625 24.168 15.625H15.832ZM8.75 10.9375C8.75 9.6943 9.14509 8.50201 9.84835 7.62294C10.5516 6.74386 11.5054 6.25 12.5 6.25C13.4946 6.25 14.4484 6.74386 15.1517 7.62294C15.8549 8.50201 16.25 9.6943 16.25 10.9375C16.25 12.1807 15.8549 13.373 15.1517 14.2521C14.4484 15.1311 13.4946 15.625 12.5 15.625C11.5054 15.625 10.5516 15.1311 9.84835 14.2521C9.14509 13.373 8.75 12.1807 8.75 10.9375ZM5 23.6963C5 20.1025 7.33203 17.1875 10.207 17.1875H14.793C17.668 17.1875 20 20.1025 20 23.6963C20 24.4141 19.5352 25 18.957 25H6.04297C5.46875 25 5 24.4189 5 23.6963Z" fill="#1351B4"/>
</g>
<defs>
<clipPath id="clip0_351_1040">
<rect width="25" height="25" fill="white"/>
</clipPath>
</defs>
</svg>

<svg xmlns="http://www.w3.org/2000/svg" width="25" height="25" fill="none"><g clip-path="url(#a)"><path fill="#1351B4" d="M5.625 0c.829 0 1.624.412 2.21 1.144.586.733.915 1.726.915 2.762s-.33 2.03-.915 2.762c-.586.733-1.381 1.144-2.21 1.144s-1.624-.411-2.21-1.144S2.5 4.942 2.5 3.906s.33-2.03.915-2.762C4.001.412 4.796 0 5.625 0M20 0c.829 0 1.624.412 2.21 1.144.586.733.915 1.726.915 2.762s-.33 2.03-.915 2.762c-.586.733-1.381 1.144-2.21 1.144s-1.624-.411-2.21-1.144-.915-1.726-.915-2.762.33-2.03.915-2.762C18.376.412 19.171 0 20 0M0 14.585c0-2.876 1.867-5.21 4.168-5.21h1.668a3.5 3.5 0 0 1 1.742.474c-.05.351-.074.717-.074 1.088 0 1.866.656 3.54 1.691 4.688H.832c-.457 0-.832-.469-.832-1.04m15.832 1.04h-.027c1.039-1.148 1.691-2.822 1.691-4.687q-.002-.556-.074-1.09a3.45 3.45 0 0 1 1.742-.473h1.668c2.3 0 4.168 2.334 4.168 5.21 0 .576-.375 1.04-.832 1.04zM8.75 10.938c0-1.244.395-2.436 1.098-3.315.704-.88 1.657-1.373 2.652-1.373s1.948.494 2.652 1.373c.703.879 1.098 2.071 1.098 3.315s-.395 2.435-1.098 3.314c-.704.88-1.657 1.373-2.652 1.373s-1.948-.494-2.652-1.373c-.703-.879-1.098-2.071-1.098-3.315M5 23.696c0-3.594 2.332-6.509 5.207-6.509h4.586c2.875 0 5.207 2.915 5.207 6.51 0 .717-.465 1.303-1.043 1.303H6.043C5.469 25 5 24.419 5 23.696"/></g><defs><clipPath id="a"><path fill="#fff" d="M0 0h25v25H0z"/></clipPath></defs></svg>
